X:77
M:2/4
L:1/8
K:D
| DF/E/ DF | AF DF | GB/A/ GE | B/c/ B/A/ FE | 
| d2 cB | BA FA | EG/F/ GE | B/c/ B/A/ FD | 
d2 cB | BA FA | B>A GC | ED D2 :|| 

